Yaru++/apps/16/org.gnome.Lollypop.svg

<svg height="16" width="16" xmlns="http://www.w3.org/2000/svg">
  <path d="m8 0c-.5056.00243-1.0097781.05181375-1.5175781.15234375-.7778 1.09876005-1.0538313 2.67586875-1.0195313 4.04296875.7498-.4993 1.63035-.7662781 2.53125-.7675781.0248-.0002.0494188-.0002.0742188 0 .4623-1.2076 1.1765593-2.48734128 2.0058596-3.14453128-.6757002-.18482999-1.373419-.28004312-2.074219-.28320312zm-5.6464844 2.3417969c-.9238.9238-1.6011956 2.029875-1.9160156 3.046875.564 1.2084 1.7895812 2.2499969 2.9882812 2.9042969-.0062-.0949-.0094656-.1900563-.0097656-.2851563.0021-.8296.2296032-1.6431156.6582032-2.3535156-.8152001-1.0052-1.5681032-2.2651-1.7207032-3.3125zm11.1640624.3945312c-1.199.0379-2.477047.5396156-3.498047 1.1660157a4.5785 4.5785 0 0 1 1.964844 1.8671874c1.137-.1853999 2.553188-.2577843 3.742187.1660157a8 8 0 0 0 -1.701171-3.1855469h-.001953c-.166001-.0144-.33586-.0190719-.50586-.0136719zm-7.2128905 2.2734375c-.1597266.0159985-.3046125.1683594-.3046875.3183594v5.34375c0 .252.2582437.409203.4648438.283203l4.3808592-2.6718749c.207-.126.207-.4403062 0-.5664062l-4.3808592-2.671875c-.0515-.029725-.1069141-.0404891-.1601563-.0351563zm6.2578125 2.6914063a4.5785 4.5785 0 0 1 .009766.3027343 4.5785 4.5785 0 0 1 -.648438 2.3417968c.816 1.005 1.571609 2.2645 1.72461 3.3125a8 8 0 0 0 1.910156-3.064453c-.566-1.213-1.794094-2.2387781-2.996094-2.8925781zm-12.2890625 2.3613281a8 8 0 0 0 1.7011719 3.1875 8 8 0 0 0 .0019531 0c1.3281.115 2.8252344-.431578 3.9902344-1.142578a4.5785 4.5785 0 0 1 -1.96875-1.876953c-1.2775.203-2.7423494.223031-3.7246094-.167969zm10.2636715 1.746094a4.5785 4.5785 0 0 1 -2.5429684.77539 4.5785 4.5785 0 0 1 -.0664062 0c-.462 1.204-1.1735 2.477813-2 3.132813a8 8 0 0 0 2.0722656.283203 8 8 0 0 0 1.5292969-.154297c.7667001-1.095 1.0418121-2.670109 1.0078121-4.037109z" fill="#808080"/>
</svg>

<?xml version="1.0" encoding="UTF-8" standalone="no"?>
<svg
   xmlns:dc="http://purl.org/dc/elements/1.1/"
   xmlns:cc="http://creativecommons.org/ns#"
   xmlns:rdf="http://www.w3.org/1999/02/22-rdf-syntax-ns#"
   xmlns:svg="http://www.w3.org/2000/svg"
   xmlns="http://www.w3.org/2000/svg"
   xmlns:sodipodi="http://sodipodi.sourceforge.net/DTD/sodipodi-0.dtd"
   xmlns:inkscape="http://www.inkscape.org/namespaces/inkscape"
   width="16"
   height="16"
   version="1.1"
   id="svg6"
   sodipodi:docname="org.gnome.Lollypop.svg"
   inkscape:version="0.92.4 (5da689c313, 2019-01-14)">
  <metadata
     id="metadata12">
    <rdf:RDF>
      <cc:Work
         rdf:about="">
        <dc:format>image/svg+xml</dc:format>
        <dc:type
           rdf:resource="http://purl.org/dc/dcmitype/StillImage" />
      </cc:Work>
    </rdf:RDF>
  </metadata>
  <defs
     id="defs10" />
  <sodipodi:namedview
     pagecolor="#ffffff"
     bordercolor="#666666"
     borderopacity="1"
     objecttolerance="10"
     gridtolerance="10"
     guidetolerance="10"
     inkscape:pageopacity="0"
     inkscape:pageshadow="2"
     inkscape:window-width="1920"
     inkscape:window-height="1016"
     id="namedview8"
     showgrid="false"
     inkscape:zoom="52.4375"
     inkscape:cx="8"
     inkscape:cy="8"
     inkscape:window-x="0"
     inkscape:window-y="27"
     inkscape:window-maximized="1"
     inkscape:current-layer="svg6" />
  <path
     fill="#808080"
     d="M 8 0 C 7.4944 0.00243 6.9902219 0.05181375 6.4824219 0.15234375 C 5.7046219 1.2511038 5.4285906 2.8282125 5.4628906 4.1953125 C 6.2126906 3.6960125 7.0932406 3.4290344 7.9941406 3.4277344 C 8.0189406 3.4275344 8.0435594 3.4275344 8.0683594 3.4277344 C 8.5306594 2.2201344 9.2449187 0.94039312 10.074219 0.28320312 C 9.3985188 0.098373125 8.7008 0.00316 8 0 z M 2.3535156 2.3417969 C 1.4297156 3.2655969 0.75232 4.3716719 0.4375 5.3886719 C 1.0015 6.5970719 2.2270812 7.6386688 3.4257812 8.2929688 C 3.4195812 8.1980688 3.4163156 8.1029125 3.4160156 8.0078125 C 3.4181156 7.1782125 3.6456188 6.3646969 4.0742188 5.6542969 C 3.2590187 4.6490969 2.5061156 3.3891969 2.3535156 2.3417969 z M 13.517578 2.7363281 C 12.318578 2.7742281 11.040531 3.2759437 10.019531 3.9023438 A 4.5785 4.5785 0 0 1 11.984375 5.7695312 C 13.121375 5.5841313 14.537563 5.5117469 15.726562 5.9355469 A 8 8 0 0 0 14.025391 2.75 L 14.023438 2.75 C 13.857437 2.7356 13.687578 2.7309281 13.517578 2.7363281 z M 6.3046875 5.0097656 C 6.1449609 5.0257641 6.000075 5.178125 6 5.328125 L 6 10.671875 C 6 10.923875 6.2582437 11.081078 6.4648438 10.955078 L 10.845703 8.2832031 C 11.052703 8.1572031 11.052703 7.8428969 10.845703 7.7167969 L 6.4648438 5.0449219 C 6.4133438 5.0151969 6.3579297 5.0044328 6.3046875 5.0097656 z M 12.5625 7.7011719 A 4.5785 4.5785 0 0 1 12.572266 8.0039062 A 4.5785 4.5785 0 0 1 11.923828 10.345703 C 12.739828 11.350703 13.495437 12.610203 13.648438 13.658203 A 8 8 0 0 0 15.558594 10.59375 C 14.992594 9.38075 13.7645 8.3549719 12.5625 7.7011719 z M 0.2734375 10.0625 A 8 8 0 0 0 1.9746094 13.25 A 8 8 0 0 0 1.9765625 13.25 C 3.3046625 13.365 4.8017969 12.818422 5.9667969 12.107422 A 4.5785 4.5785 0 0 1 3.9980469 10.230469 C 2.7205469 10.433469 1.2556975 10.4535 0.2734375 10.0625 z M 10.537109 11.808594 A 4.5785 4.5785 0 0 1 7.9941406 12.583984 A 4.5785 4.5785 0 0 1 7.9277344 12.583984 C 7.4657344 13.787984 6.7542344 15.061797 5.9277344 15.716797 A 8 8 0 0 0 8 16 A 8 8 0 0 0 9.5292969 15.845703 C 10.295997 14.750703 10.571109 13.175594 10.537109 11.808594 z"
     id="path4" />
</svg>
